X:1
T:6 Variations in F Major,
T:K.54
T:W.A. MOZART (1756-1791)
T:6 Variations in F Major, K.54
C:W.A. MOZART
C:(1756-1791)
%%score { ( 1 4 ) | ( 2 3 ) }
L:1/8
Q:1/4=100
M:2/4
K:F
V:1 treble nm="Piano" snm="Pno."
V:4 treble 
V:2 bass 
V:3 bass 
V:1
!mf!"^THEMA""^Allegretto" (ca | fe) (gB | ^GA) (=Gd | .E).F.B.A | (^FG/) z/"_cresc." (Aa | %5
 c'b) (d'e | gf) (f/!>(!d/f/d/ | c/f/d/B/ A/c/B/G/ | .F)!>)! z ::!p! (=B/f/d/B/ | .c).e.d.[=Bg] | %11
 ([df][ce])!pp! (=B/f/d/B/ | .c).e.d.[=Bg] | ([df][ce])"_cresc." .[ce].[ce] | %14
 .[cf].[cf].[cg].[cg] |!f! ([ca]f/) z/ (f!>(!d/) z/ | (c/f/d/B/ A/c/B/G/!>)! |!p! F) z :: %18
[M:2/4]"^VAR. I"!p!"_sempre legato" (c/a/g/f/ | e/b/a/g/ f/e/d/c/ | B/A/^G/A/) (^F/=G/B/d/ | %21
 =F/E/G/F/ c/=B/_B/A/ | ^F/G/.G) (A/=f/c/a/ | c'/b/d'/b/ a/g/b/e/ | g/f/a/(^c/) e/d/!>(!f/=B/ | %25
 d/=c/d/G/ _B/A/B/E/ |!pp! .F)!>)! z ::!p! (d/e/f/^f/ | g/a/=b/c'/ b/a/g/=f/ | %29
 g/f/e)!pp! (d/e/f/^f/ | g/a/=b/c'/ ^c'/d'/d/g/ | =f/^d/e)"_cresc." (e/=d'/c'/e/ | %32
 f/d'/c'/f/ g/d'/c'/g/ | b/a/g/!mf!(f/)!>(! g/f/e/d/ | =B/c/d/_B/ ^G/A/B/=G/!>)! |!p! .F) z :: %36
[M:2/4]"^VAR. II"!mf! (cf- | fe) (gB | BA) (Gd) | (EF) (BA) | (^FG/) z/"_cresc." (ca | c'b) (d'e | %42
 gf)!>(! (f/d/f/d/ | c/f/d/B/ AG | F)!>)! z ::!p! (d/c/d/=B/ | (c)e dg | fe)!pp! (d/^c/d/=B/ | %48
 (=c)e dg | fe)"_cresc." .[ce].[ce] | .[cf].[cf].[cg].[cg] |!f! (a!>(!f/) z/ (fd/) z/!>)! | %52
!p! (c/f/d/B/ AG | F) z ::[M:2/4]"^VAR. III"!p!"_leggiero" .f.[=Bf] | ([=Bf][ce]) ._B.[GB] | %56
 ([GB][FA]) .^c.[Gc] | ([G^c][Fd]) .D{=c} (B/A/4G/4 |!>(! FE)!>)! .a.[_ea] | ([_ea][db]) .=e.[Be] | %60
 ([Be][Af]) .F.F | (F>G A/>B/G/>A/ | .F) z ::!p! .d.d | (a.g) .f.f | (^de)!mf! .=d.d | %66
 (_ag) .f'.f' |!>(! (!>!^d'e')!>)!!p! .E.E | (=dc)!mf! .e.e | (d'!>(!c') .F.F!>)! | %70
!p! (F>G A/>B/G/>A/ | .F) z ::[M:2/4]"^VAR. IV"!p! z/ (A,/C/F/ | D/=B,/.C) z/ (C/E/G/ | %74
 E/C/.F) z/ (F/B/A/ | ^F/G/d/c/ =B/_B/A/G/ | =F/4E/4G/4E/4.C)"_cresc." z/ (c/c'/a/ | %77
 ^f/d/.g) z/ (=b/c'/_b/) | ([eb][=fa])!ff! .[dfbd'] z | %79
!p! (6:4:6z/ .c'/.b/.a/.g/.f/ (6:4:6.e/.d/.c/.B/.A/.G/ | F z :: z2 | %82
 z/ (e/g/c'/ =b/d'/).[=Bd]/.[Bd]/ | ([=Bd].[ce]) z2 | z/ (E/G/c/ =B/d/).[=B,D]/.[B,D]/ | %85
 ([=B,D].[CE]) z/"_cresc." (^F/G/c/) | z/ (^G/A/d/) z/ (A/_B/e/) | z/ (=B/c/f/)!ff! .[df_ad'] z | %88
!p! (6:4:6z/ .c'/._b/.=a/.g/.f/ (6:4:6.e/.d/.c/.B/.A/.G/ | .F z :: %90
[K:Fmin][M:2/4]"^VAR. V"!p!"_sempre legato" (cd- | d c2 B- | B A2) (G/>F/ | =EFB=B | (c).C) z (B | %95
 f=efg | c2 =B2) | ([_D_B][CA]{A} GF/=E/ | F) z ::!mf! (ca- | a g2"_dim." f- | %101
 f.=e)!mf! z (f/>=d/ | _B_e/>c/"_dim." =A=d/>=B/ | G.c)!>(! !>!_d2- | (dc)!>)! z (f | b a2 g/>f/ | %106
"_dim." =ef) ([Ac]/[GB]/[FA]/[=EG]/ | .F) z :: %108
[K:F][M:2/4]"^VAR. VI"!f![Q:1/4=68] (A/4B/4c/4d/4 c/4d/4e/4f/4 | %109
 e/4f/4g/4a/4 b/4a/4g/4f/4 e/4f/4g/4f/4 e/4d/4c/4B/4 | %110
 A/4c/4f/4e/4 d/4c/4B/4A/4 (G/4)B/4d/4c/4 B/4A/4G/4F/4 | %111
 E/4F/4E/4C/4 F/4G/4F/4C/4 B/4c/4B/4G/4 A/4B/4A/4F/4 | %112
!>(! ^F/4G/4A/4G/4 =F/4E/4D/4C/4!>)!!p! (c/4)B/4A/4B/4 c/4d/4e/4f/4 | %113
 e/4f/4g/4a/4 b/4c'/4d'/4c'/4 b/4a/4g/4f/4 e/4d/4c/4B/4 | %114
 B/4A/4^G/4A/4 G/4A/4G/4A/4 (^F/4)=G/4A/4B/4 A/4B/4c/4d/4 | %115
 c/4d/4e/4=f/4 e/4d/4c/4B/4 A/4B/4c/4d/4 c/4B/4A/4G/4 | F) z ::!p! (d/4e/4d/4^c/4 d/4e/4f/4^f/4 | %118
 g/4a/4g/4^f/4 g/4a/4=b/4c'/4 b/4c'/4d'/4c'/4 b/4a/4g/4=f/4 | %119
 g/4f/4e/4f/4 e/4g/4f/4e/4!p! (d/4)c/4=B/4c/4 d/4e/4f/4^f/4 | %120
 g/4=f/4e/4f/4!<(! g/4a/4=b/4c'/4 b/4d'/4!<)!!>(!f'/4d'/4 b/4g/4d'/4f/4!>)! | %121
 g/4f/4e/4f/4 e/4f/4g/4f/4"_cresc." (e/4)f/4e/4c/4 =b/4c'/4g/4e/4 | %122
 f/4g/4f/4c/4 =b/4c'/4a/4f/4 g/4a/4g/4c/4 =b/4c'/4_b/4g/4 | %123
 ^g/4a/4c'/4a/4 e/4f/4a/4f/4!f! (^c/4)d/4f/4d/4 A/4B/4d/4B/4 | %124
 =c/4f/4A/4c/4 B/4d/4G/4B/4 A/4c/4F/4A/4 G/4B/4E/4G/4 | F) z :| (f>A | c/B/.B) (f>A | %128
 c/B/.B) (f>"_cresc."A | B3/2c/4d/4 AG | %130
"_legato"!mf! F/4)A/4c/4A/4 F/4A/4F/4C/4 F/4A/4c/4A/4 F/4A/4F/4C/4 | %131
 F/4B/4d/4B/4 F/4B/4F/4D/4"_cresc." F/4A/4c/4A/4 F/4A/4F/4C/4 | %132
 F/4B/4d/4B/4 F/4B/4F/4D/4 F/4A/4c/4A/4 F/4A/4F/4C/4 | %133
"_decresc." D/4F/4B/4F/4 D/4G/4B/4G/4 D/4F/4A/4F/4 B,/4=E/4G/4E/4 | %134
!p! A,/4C/4F/4C/4 A,/4"_cresc."C/4F/4C/4 B,/4C/4E/4C/4 B,/4C/4E/4C/4 | %135
 A,/4C/4F/4C/4 A,/4C/4F/4C/4 B,/4C/4E/4C/4 B,/4C/4E/4C/4 |!f! .[A,F].[CA].[A,F] z |] %137
V:2
 z[K:treble] ([FA] | [GB]2)[K:bass] z [E,C] | [F,C]2 [B,-D]2 | C4 | .[C,E,] z z ([^F,C] | %5
 [G,C]2) z ([B,C] | [A,C]2) z .[B,,D,] | F,3 E, | .F,.F,, :: z[K:treble] .[FG] | %10
 .[EG].[CG].[=B,G].[G,G] | [CG]2 z ([FG] | .[EG]).[CG].[=B,G].[G,G] | [CG]2[K:bass] ._B,.B, | %14
 .A,.A,.E,.E, | F, z [B,D] z | F,3 E, | .F,.F,, ::[M:2/4] z[K:treble] ([Ac] | [GB]2) z ([CE] | %20
 [DF]2)[K:bass] D2 | C4 | .[C,E,] z z ([A,F] | [G,G]2) z[K:treble] ([^CB] | [DA]2) z .[^G,F] | %25
 F3[K:bass] ([C,B,] | .[F,A,]).F,, :: z[K:treble] ([F=B] | [Ec]2) z ([=B,G] | %29
 [CG]2) z[K:bass] ([F,=B,] | [E,C]2) z ([=B,,G,] | [C,G,]2) z[K:treble] .[_Bc] | z .[Ac] z .[Ec] | %33
 .[Fc] z[K:bass] .[B,D] z | F,3 E, | .F,.F,, ::[M:2/4]"_sempre legato" F,/A,/C/A,/ | %37
 B,/A,/G,/F,/ E,/C,/D,/E,/ | F,/^C,/D,/=C,/ B,,/G,,/A,,/B,,/ | C,/B,,/A,,/F,,/ E,,/C,,/F,,/A,,/ | %40
 C,/C/B,/G,/ F,/A,/C/F/ |[K:treble] ^F/A/G/=F/ E/C/B,/G,/ |[K:bass] A,/C/F,/A,/ B,/C/D/E/ | %43
 F/A,/B,/G,/ C/B,/C/C,/ | F,F,, :: F/E/F/D/ | E/D/E/C/ =B,/A,/B,/G,/ | C/=B,/C/E/ F/E/F/D/ | %48
 E/D/E/C/ =B,/A,/B,/G,/ | C/C,/E,/G,/ C/=B,/C/_B,/ | A,/G,/A,/F,/ E,/D,/E,/C,/ | %51
 F,/F,,/G,,/A,,/ B,,/C,/D,/E,/ | F,/A,,/B,,/G,,/ C,/B,,/C,/C,,/ | .F,,.F, :: %54
[M:2/4] z[K:treble] .G | G2[K:bass] z .[E,_D] | ([E,_D][F,C]) z .[A,E] | ([A,E][B,=D]) z (G, | %58
 A,G,) z[K:treble] .[^Fc] | ([^Fc][GB]) z .[^CG] | ([^CG][D=F])[K:bass] z _A, | (=A,>_B,=CB, | %62
 .[F,A,]).F,, :: z[K:treble] (([F=B] | [Ec]2)) z ([=B,G-] | [CG]2) z (([F=B] | [Ec]2)) z ([=Bg-] | %67
 [cg]2) z[K:bass] (([_B,C] | [A,F]2)) z[K:treble] (([Bc] | [Af]2)) z[K:bass] _A, | (=A,>_B,CB, | %71
 .[F,A,]).F,, ::[M:2/4] .C,,.A,, | (F,,.E,,) .G,.B,, | (^G,,.A,,) .D,.C, | .B,,.^F,,.=G,,.B,, | %76
 .C, z .C,.A, | (C.B,) .D.E, | G,F, .[B,,,B,,] z | .[C,F,A,] z .[C,G,B,] z | [F,A,] z :: %81
 (=B,/F/D/B,/ | .C).E.D.G | (!>!F.E) =B,,/F,/D,/B,,/ | .C,.E,.D,.G, | (!>!F,.E,) .E,.E, | %86
 .F,.F,.G,.G, | .A, z .[=B,,,=B,,] z | .[C,F,=A,] z .[C,G,_B,] z | .[F,A,] z :: %90
[K:Fmin][M:2/4] z[K:treble] ([FA] | [=EG][CE][=DF][EG] | F2)[K:bass] [B,D]2- | %93
 [B,D][A,C][G,B,][F,A,] | [=E,G,] z (C_D- | D C2 B,- | B, A,2) (G,/>F,/ | =E,F, [B,,B,][C,G,B,] | %98
 [F,A,])F,, :: z (F/>=D/ | B,_E/>C/ =A,=D/>=B,/ | G,.C) (C,_A,- | A, G,2 F,- | %103
 F,.=E,) z[K:treble] ([FA] | [=EG][FA])[K:bass] !>![_D,_D]2- | ([D,D][C,C][=B,,=B,][_B,,_B,]-) | %106
 ([B,,B,][A,,A,][B,,B,][C,C] | .F,).F,, ::[K:F][M:2/4] F,2 | G,2 C,2 | F,2 B,,2- | B,,A,,E,,F,, | %112
 C,, z F,2 | G,2 C,2 | D,2 B,,2 | A,,B,,C,C,, | .F,,.F, :: F,2 | E,2 D,G,, | C,2 F,F, | E,E,D,G,, | %121
 C, z _B,,2 | A,,2 E,,2 | F,,A,,B,,D, | A,,B,,C,C,, | .F,,.F, :| (_E/F/E/F/ | %127
 D/F/D/F/ (_E/)F/E/F/ | D/F/D/F/ (_E/)F/E/F/ | D) ([B,,F,][C,F,][C,=E,] | F,) z (_E,>C, | %131
 D,)z/(B,,/ _E,>C, | D,)z/(B,,/ _E,>C, | D,)(B,,C,C, | F,,)(C,,G,,C,, | F,,)(C,,G,,C,, | %136
 .F,,).F,.F,, z |] %137
V:3
 x[K:treble] x | x2[K:bass] x2 | x4 | B,.A,.E,.F, | x4 | x4 | x4 | A,,B,,C,C, | x2 :: %9
 x[K:treble] x | x4 | x4 | x4 | x2[K:bass] x2 | x4 | x4 | A,,B,,C,C, | x2 ::[M:2/4] x[K:treble] x | %19
 x4 | x2[K:bass] B,2- | B,A,E,F, | x4 | x3[K:treble] x | x4 | (A,B,C)[K:bass] x | x2 :: %27
 x[K:treble] x | x4 | x3[K:bass] x | x4 | x3[K:treble] x | x4 | x2[K:bass] x2 | A,,B,, C,2 | x2 :: %36
[M:2/4] x2 | x4 | x4 | x4 | x4 |[K:treble] x4 |[K:bass] x4 | x4 | x2 :: x2 | x4 | x4 | x4 | x4 | %50
 x4 | x4 | x4 | x2 ::[M:2/4] x[K:treble] D | (DC)[K:bass] x2 | x4 | x3 B,, | C,2 x[K:treble] x | %59
 x4 | x2[K:bass] x =B,, | C,4 | x2 :: x[K:treble] x | x4 | x4 | x4 | x3[K:bass] x | %68
 x3[K:treble] x | x3[K:bass] =B,, | C,4 | x2 ::[M:2/4] x2 | x4 | x4 | x4 | x4 | x4 | x4 | x4 | %80
 x2 :: x2 | x4 | x4 | x4 | x4 | x4 | x4 | x4 | x2 ::[K:Fmin][M:2/4] x[K:treble] x | x4 | %92
 x2[K:bass] x2 | x4 | x4 | x4 | x4 | x4 | x2 :: x2 | x4 | x4 | x4 | x3[K:treble] x | %104
 x2[K:bass] x2 | x4 | x4 | x2 ::[K:F][M:2/4] x2 | x4 | x4 | x4 | x4 | x4 | x4 | x4 | x2 :: x2 | %118
 x4 | x4 | x4 | x4 | x4 | x4 | x4 | x2 :| x2 | x4 | x4 | x4 | x4 | x4 | x4 | x4 | x4 | x4 | x4 |] %137
V:4
 x2 | x4 | x4 | x4 | x4 | x4 | x4 | x4 | x2 :: x2 | x4 | x4 | x4 | x4 | x4 | x4 | x4 | x2 :: %18
[M:2/4] x2 | x4 | x4 | x4 | x4 | x4 | x4 | x4 | x2 :: x2 | x4 | x4 | x4 | x4 | x4 | x4 | x4 | x2 :: %36
[M:2/4] cA | G2 z G- | GF x2 | C2 GF | ^DE/ x/ c2- | c2 z c- | c2 B2 | AG FE | F x :: G2- | %46
 G G2 G | G4- | G G2 G | G2 x2 | x4 | c2 dB/ x/ | AG FE | .F x ::[M:2/4] x2 | x4 | x4 | x4 | x4 | %59
 x4 | x4 | x4 | x2 :: x2 | x4 | x4 | x4 | x4 | x4 | x4 | x4 | x2 ::[M:2/4] x2 | x4 | x4 | x4 | x4 | %77
 x4 | c2 x2 | x4 | x2 :: x2 | x4 | x4 | x4 | x4 | x4 | x4 | x4 | x2 ::[K:Fmin][M:2/4] x2 | x4 | %92
 x4 | x4 | x3 _B- | B2 AG | =EF =D2 | x4 | x2 :: x2 | x4 | x4 | x4 | x4 | x4 | =e_e=d_d | c2 x2 | %107
 x2 ::[K:F][M:2/4] x2 | x4 | x4 | x4 | x4 | x4 | x4 | x4 | x2 :: x2 | x4 | x4 | x4 | x4 | x4 | x4 | %124
 x4 | x2 :| x2 | x4 | x4 | x4 | x4 | x4 | x4 | x4 | x4 | x4 | x4 |] %137

